X:1
T: Ellon Castle
C:
R:Strathspey
Q: 128
K:F
M:4/4
L:1/16
|:C2|CA3 A3G G3F F3D|DG3 G3A B6 D2|DB3 B3A A3G G3F|EG3 c3B A4 A3C|
CA3 A3G G3F F3D|DG3 G3A B6 D2|DB3 B3A A3G G3F|FE3 A3G F4 -F2A2|
Ad3 d3f e3d ^c3B|Ad3 d3e f6 c2|dg3 g3e e2d2 c2B2 e2d2 c2=B2 c4_B4|
AA3 A3G G3F F3E|DG3 G3A B6 c2|((3d2^c2d2) ((3e2^d2e2) ((3f2e2=d2) ((3=c2=B2c2)| ((3e2d2c2) ((3B2A2G2) F6:|
